X:106
T:Fisherman's Lilt
Z: id:dc-reel-98
M:C
L:1/8
K:C Major
A|G3E GAcd|edcB cAA2|GEE2 GAcd|edcB c3:|!
d|egg2 agea|gede cAA2|egg2 eaa2|gaag a3g|!
egg2 agea|gede cAA2|GEE2 GAcd|edcB c3|]!

